Gruvbox-Plus-Dark/apps/scalable/affinity-designer.svg

<svg width="256" height="256" fill="none" version="1.1" viewBox="0 0 256 256" xmlns="http://www.w3.org/2000/svg">
  <defs>
    <filter id="filter1_f" x="50.4" y="56.45" width="160" height="146.5" color-interpolation-filters="sRGB" filterUnits="userSpaceOnUse">
      <feFlood flood-opacity="0" result="BackgroundImageFix"/>
      <feBlend in="SourceGraphic" in2="BackgroundImageFix" result="shape"/>
    </filter>
    <linearGradient id="paint0_linear" x1="187" x2="5.676" y1="2" y2="240.3" gradientUnits="userSpaceOnUse">
      <stop stop-color="#b16286" offset="0"/>
      <stop stop-color="#8f3f71" offset="1"/>
    </linearGradient>
    <linearGradient id="paint1_linear" x1="132.1" x2="132.1" y1="11.95" y2="240.3" gradientUnits="userSpaceOnUse">
      <stop stop-color="#ebdbb2" offset="0"/>
      <stop stop-color="#ebdbb2" stop-opacity=".098" offset=".125"/>
      <stop stop-opacity=".098" offset=".925"/>
      <stop stop-opacity=".498" offset="1"/>
    </linearGradient>
    <linearGradient id="paint2_linear" x1="132.8" x2="133.1" y1="72.67" y2="175" gradientUnits="userSpaceOnUse">
      <stop stop-color="#8ec07c" offset="0"/>
      <stop stop-color="#83a598" offset="1"/>
    </linearGradient>
    <linearGradient id="paint3_linear" x1="128" x2="128" y1="64.74" y2="191.3" gradientUnits="userSpaceOnUse">
      <stop stop-color="#504945" offset="0"/>
      <stop stop-color="#3c3836" offset="1"/>
    </linearGradient>
  </defs>
  <path d="m250.3 96.49c0-73.99-10.58-84.54-84.64-84.54h-75.37c-74.06 0-84.64 10.56-84.64 84.54v59.25c0 73.99 10.58 84.54 84.64 84.54h75.37c74.06 0 84.64-10.56 84.64-84.54v-59.25z" fill="url(#paint0_linear)"/>
  <path d="m165.1 11.95c4.328-0.0098 8.656 0.0393 12.98 0.1376 3.875 0.0786 7.751 0.226 11.63 0.4519 3.453 0.1965 6.905 0.4814 10.35 0.8548 3.059 0.334 6.118 0.786 9.148 1.346 2.715 0.501 5.4 1.14 8.046 1.916 2.4 0.6976 4.751 1.562 7.023 2.584 2.115 0.9432 4.141 2.063 6.059 3.35 1.839 1.238 3.561 2.653 5.135 4.215 1.564 1.572 2.98 3.282 4.219 5.119 1.289 1.916 2.41 3.94 3.364 6.042 1.023 2.279 1.889 4.618 2.597 7.005 0.777 2.643 1.417 5.325 1.918 8.037 0.561 3.026 1.013 6.072 1.348 9.127 0.374 3.439 0.659 6.877 0.856 10.33 0.226 3.861 0.373 7.732 0.462 11.59 0.088 4.323 0.138 8.646 0.128 12.96v58.21c0.01 4.323-0.04 8.636-0.128 12.96-0.089 3.871-0.236 7.732-0.462 11.59-0.197 3.449-0.482 6.897-0.856 10.33-0.335 3.055-0.787 6.111-1.348 9.137-0.501 2.702-1.141 5.384-1.918 8.027-0.708 2.387-1.574 4.735-2.597 7.005-0.954 2.112-2.075 4.126-3.364 6.042-1.239 1.837-2.655 3.557-4.219 5.119-1.574 1.562-3.296 2.977-5.135 4.215-1.918 1.287-3.944 2.407-6.059 3.35-2.272 1.022-4.623 1.886-7.023 2.594-2.646 0.776-5.331 1.414-8.046 1.906-3.03 0.569-6.089 1.011-9.148 1.346-3.443 0.373-6.895 0.658-10.35 0.854-3.875 0.226-7.751 0.374-11.63 0.462-4.328 0.088-8.656 0.138-12.98 0.128h-74.13c-4.328 0.01-8.656-0.04-12.98-0.128-3.876-0.088-7.751-0.236-11.63-0.462-3.452-0.196-6.905-0.481-10.35-0.854-3.059-0.335-6.118-0.777-9.148-1.346-2.715-0.492-5.4-1.13-8.046-1.906-2.4-0.708-4.751-1.572-7.023-2.594-2.115-0.943-4.141-2.063-6.059-3.35-1.839-1.238-3.561-2.653-5.135-4.215-1.564-1.562-2.98-3.282-4.22-5.119-1.289-1.916-2.41-3.93-3.364-6.042-1.023-2.27-1.889-4.618-2.597-7.005-0.7771-2.643-1.416-5.325-1.918-8.027-0.5607-3.026-1.013-6.082-1.348-9.137-0.3738-3.429-0.659-6.877-0.8558-10.33-0.2262-3.861-0.3738-7.722-0.4623-11.59-0.08852-4.323-0.1377-8.636-0.1279-12.96v-58.21c-0.00983-4.313 0.03935-8.636 0.1279-12.96 0.08853-3.861 0.2361-7.732 0.4623-11.59 0.1967-3.448 0.482-6.887 0.8558-10.33 0.3344-3.056 0.7869-6.101 1.348-9.127 0.5016-2.712 1.141-5.394 1.918-8.037 0.7082-2.387 1.574-4.726 2.597-7.005 0.9541-2.102 2.075-4.126 3.364-6.042 1.239-1.837 2.656-3.547 4.22-5.119 1.574-1.562 3.295-2.977 5.135-4.215 1.918-1.287 3.944-2.407 6.059-3.35 2.272-1.022 4.623-1.886 7.023-2.584 2.646-0.7761 5.331-1.415 8.046-1.916 3.03-0.56 6.089-1.012 9.148-1.346 3.443-0.3734 6.895-0.6583 10.35-0.8548 3.876-0.2259 7.751-0.3733 11.63-0.4519 4.328-0.0983 8.656-0.1474 12.98-0.1376h74.13zm0.01 4.009c4.298-0.0099 8.597 0.0393 12.9 0.1277 3.827 0.0884 7.653 0.2358 11.48 0.4519 3.384 0.1965 6.767 0.4716 10.13 0.8449 2.971 0.3144 5.932 0.7467 8.863 1.297 2.577 0.4716 5.134 1.081 7.653 1.818 2.223 0.6484 4.396 1.454 6.501 2.397 1.909 0.8548 3.738 1.867 5.469 3.026 1.623 1.09 3.138 2.338 4.525 3.724s2.636 2.898 3.738 4.519c1.16 1.729 2.174 3.547 3.029 5.443 0.945 2.112 1.751 4.284 2.4 6.494 0.748 2.515 1.348 5.06 1.83 7.634 0.541 2.928 0.974 5.875 1.298 8.842 0.374 3.36 0.65 6.73 0.846 10.11 0.217 3.822 0.374 7.634 0.453 11.46 0.088 4.293 0.137 8.577 0.137 12.87v58.21c0 4.293-0.049 8.577-0.137 12.87-0.079 3.822-0.236 7.644-0.453 11.46-0.196 3.38-0.472 6.75-0.846 10.12-0.324 2.957-0.757 5.904-1.298 8.832-0.482 2.574-1.082 5.119-1.83 7.634-0.649 2.22-1.455 4.382-2.4 6.494-0.855 1.896-1.869 3.724-3.029 5.443-1.102 1.631-2.351 3.144-3.738 4.529-1.387 1.376-2.902 2.623-4.525 3.714-1.731 1.159-3.56 2.171-5.469 3.026-2.105 0.953-4.278 1.749-6.501 2.397-2.519 0.737-5.076 1.346-7.653 1.818-2.931 0.55-5.892 0.982-8.863 1.306-3.364 0.364-6.747 0.649-10.13 0.836-3.826 0.216-7.652 0.373-11.48 0.452-4.298 0.098-8.597 0.137-12.9 0.137h-0.01-74.13-0.0099c-4.298 0-8.597-0.039-12.9-0.137-3.826-0.079-7.653-0.236-11.48-0.452-3.384-0.187-6.767-0.472-10.13-0.836-2.97-0.324-5.931-0.756-8.862-1.306-2.577-0.472-5.134-1.081-7.653-1.818-2.223-0.648-4.397-1.444-6.502-2.397-1.908-0.855-3.738-1.867-5.469-3.026-1.623-1.091-3.138-2.338-4.525-3.714-1.387-1.385-2.636-2.898-3.738-4.529-1.161-1.719-2.174-3.547-3.03-5.443-0.9443-2.112-1.751-4.274-2.4-6.494-0.7475-2.515-1.348-5.06-1.83-7.634-0.541-2.928-0.9738-5.875-1.298-8.832-0.3738-3.37-0.6492-6.74-0.8459-10.12-0.2164-3.812-0.3738-7.634-0.4525-11.46-0.08853-4.293-0.1377-8.577-0.1377-12.87v-58.21c0-4.293 0.04918-8.577 0.1377-12.87 0.07869-3.822 0.2361-7.634 0.4525-11.46 0.1967-3.38 0.4721-6.75 0.8459-10.11 0.3246-2.967 0.7574-5.914 1.298-8.842 0.4819-2.574 1.082-5.119 1.83-7.634 0.6492-2.21 1.456-4.382 2.4-6.494 0.8557-1.896 1.869-3.714 3.03-5.443 1.102-1.621 2.351-3.134 3.738-4.519s2.902-2.633 4.525-3.724c1.731-1.159 3.561-2.171 5.469-3.026 2.105-0.9431 4.279-1.749 6.502-2.397 2.518-0.7369 5.076-1.346 7.653-1.818 2.931-0.5502 5.892-0.9825 8.862-1.297 3.364-0.3733 6.748-0.6484 10.13-0.8449 3.826-0.2161 7.653-0.3635 11.48-0.4519 4.298-0.0884 8.597-0.1376 12.9-0.1277h0.0099 74.13 0.01z" clip-rule="evenodd" fill="url(#paint1_linear)" fill-rule="evenodd" opacity=".4"/>
  <g filter="url(#filter1_f)" opacity=".4">
    <path d="m115.5 66.45-10.69 18.06 4.467 7.587-21.49 37.36-13.28 7.843-14.11 23.63 11.16 18.75 3.904-0.225 3.318 5.798 59.57 0.018 4.555 7.666 3.263 0.034-4.497-7.7 46.69 0.014 12.03-19.63-54.83-95.78-6.728 0.127-1.543-3.081-21.8-0.4691zm23.26 7.97 18.02 31.06h-35.93l17.9-31.06zm-19.44 33.71h39l33.37 57.51-61.7-0.358-21.95-37.6 11.28-19.56zm-12.92 22.42 11.99 20.53h-23.83l11.84-20.53zm-13.37 23.18h26.9l13.18 22.58-52.95-0.27 12.86-22.31z"/>
  </g>
  <path d="m77.77 174.3 58.59-101.6 52.94 91.22-62.3-0.362 6.951 11.05-56.18-0.286z" fill="url(#paint2_linear)"/>
  <path d="m113.1 64.74-10.69 18.06 4.466 7.587-21.49 37.36-13.28 7.844-14.11 23.63 11.16 18.75 3.904-0.225 3.318 5.798 59.57 0.018 4.555 7.666 3.263 0.034-4.496-7.699 46.69 0.013 12.03-19.63-54.83-95.78-6.728 0.1269-1.543-3.081-21.8-0.469zm23.26 7.97 18.02 31.06h-35.93l17.91-31.06zm-19.44 33.71h39l33.37 57.51-61.7-0.359-21.95-37.6 11.28-19.56zm-12.92 22.42 11.99 20.53h-23.83l11.84-20.53zm-13.37 23.18h26.9l13.18 22.58-52.95-0.27 12.86-22.31z" fill="url(#paint3_linear)"/>
</svg>

<svg xmlns="http://www.w3.org/2000/svg" fill="none" width="256" height="256" viewBox="0 0 256 256">
 <defs>
  <filter id="filter0_d" width="264.648" height="248.338" x="-4.32" y="5.95" color-interpolation-filters="sRGB" filterUnits="userSpaceOnUse">
   <feFlood flood-opacity="0" result="BackgroundImageFix"/>
   <feColorMatrix in="SourceAlpha" type="matrix" values="0 0 0 0 0 0 0 0 0 0 0 0 0 0 0 0 0 0 127 0"/>
   <feOffset dy="4"/>
   <feColorMatrix type="matrix" values="0 0 0 0 0 0 0 0 0 0 0 0 0 0 0 0 0 0 0.4 0"/>
   <feBlend in2="BackgroundImageFix" mode="normal" result="effect1_dropShadow"/>
   <feBlend in="SourceGraphic" in2="effect1_dropShadow" mode="normal" result="shape"/>
  </filter>
  <filter id="filter1_f" width="160" height="146.526" x="50.4" y="56.45" color-interpolation-filters="sRGB" filterUnits="userSpaceOnUse">
   <feFlood flood-opacity="0" result="BackgroundImageFix"/>
   <feBlend in="SourceGraphic" in2="BackgroundImageFix" mode="normal" result="shape"/>
  </filter>
  <linearGradient id="paint0_linear" x1="187" x2="5.676" y1="2" y2="240.285" gradientUnits="userSpaceOnUse">
   <stop stop-color="#b16286"/>
   <stop offset="1" stop-color="#8f3f71"/>
  </linearGradient>
  <linearGradient id="paint1_linear" x1="132.082" x2="132.082" y1="11.95" y2="240.29" gradientUnits="userSpaceOnUse">
   <stop stop-color="#ebdbb2"/>
   <stop offset=".125" stop-color="#ebdbb2" stop-opacity=".098"/>
   <stop offset=".925" stop-opacity=".098"/>
   <stop offset="1" stop-opacity=".498"/>
  </linearGradient>
  <linearGradient id="paint2_linear" x1="132.845" x2="133.077" y1="72.667" y2="174.952" gradientUnits="userSpaceOnUse">
   <stop stop-color="#8ec07c"/>
   <stop offset="1" stop-color="#83a598"/>
  </linearGradient>
  <linearGradient id="paint3_linear" x1="128" x2="128" y1="64.737" y2="191.263" gradientUnits="userSpaceOnUse">
   <stop stop-color="#504945"/>
   <stop offset="1" stop-color="#3c3836"/>
  </linearGradient>
  <clipPath id="clip0">
   <rect fill="#ebdbb2" width="256" height="256"/>
  </clipPath>
 </defs>
 <g clip-path="url(#clip0)">
  <g filter="url(#filter0_d)">
   <path fill="url(#paint0_linear)" d="M250.324 96.4908C250.324 22.5042 239.74 11.947 165.685 11.947H90.3152C16.2595 11.947 5.67586 22.5042 5.67586 96.4908V155.742C5.67586 229.728 16.2595 240.285 90.3152 240.285H165.685C239.74 240.285 250.324 229.728 250.324 155.742V96.4908Z"/>
  </g>
  <path fill="url(#paint1_linear)" fill-rule="evenodd" opacity=".4" d="M165.068 11.9512C169.396 11.9414 173.724 11.9905 178.052 12.0888C181.927 12.1674 185.803 12.3148 189.678 12.5407C193.131 12.7372 196.583 13.0221 200.026 13.3955C203.085 13.7295 206.144 14.1815 209.174 14.7415C211.889 15.2425 214.574 15.8812 217.22 16.6573C219.62 17.3549 221.971 18.2195 224.243 19.2412C226.358 20.1844 228.384 21.3044 230.302 22.5915C232.141 23.8294 233.863 25.2442 235.437 26.8063C237.001 28.3783 238.417 30.0878 239.656 31.925C240.945 33.8408 242.066 35.8647 243.02 37.9672C244.043 40.2466 244.909 42.5849 245.617 44.9723C246.394 47.6152 247.034 50.2973 247.535 53.009C248.096 56.035 248.548 59.0807 248.883 62.1362C249.257 65.5748 249.542 69.0135 249.739 72.462C249.965 76.3232 250.112 80.1941 250.201 84.0553C250.289 88.3781 250.339 92.701 250.329 97.0141V155.226C250.339 159.549 250.289 163.862 250.201 168.185C250.112 172.056 249.965 175.917 249.739 179.778C249.542 183.227 249.257 186.675 248.883 190.104C248.548 193.159 248.096 196.215 247.535 199.241C247.034 201.943 246.394 204.625 245.617 207.268C244.909 209.655 244.043 212.003 243.02 214.273C242.066 216.385 240.945 218.399 239.656 220.315C238.417 222.152 237.001 223.872 235.437 225.434C233.863 226.996 232.141 228.411 230.302 229.649C228.384 230.936 226.358 232.056 224.243 232.999C221.971 234.021 219.62 234.885 217.22 235.593C214.574 236.369 211.889 237.007 209.174 237.499C206.144 238.068 203.085 238.51 200.026 238.845C196.583 239.218 193.131 239.503 189.678 239.699C185.803 239.925 181.927 240.073 178.052 240.161C173.724 240.249 169.396 240.299 165.068 240.289H90.942C86.614 240.299 82.286 240.249 77.9581 240.161C74.0826 240.073 70.2071 239.925 66.3316 239.699C62.8791 239.503 59.4266 239.218 55.9839 238.845C52.9248 238.51 49.8657 238.068 46.8362 237.499C44.1213 237.007 41.4361 236.369 38.7901 235.593C36.39 234.885 34.0392 234.021 31.767 232.999C29.6522 232.056 27.6259 230.936 25.7079 229.649C23.8685 228.411 22.1471 226.996 20.5733 225.434C19.0094 223.872 17.5929 222.152 16.3536 220.315C15.065 218.399 13.9437 216.385 12.9896 214.273C11.9666 212.003 11.101 209.655 10.3928 207.268C9.61574 204.625 8.97638 201.943 8.47473 199.241C7.91406 196.215 7.4616 193.159 7.12716 190.104C6.75339 186.675 6.46813 183.227 6.27141 179.778C6.04518 175.917 5.89763 172.056 5.8091 168.185C5.72058 163.862 5.6714 159.549 5.68123 155.226V97.0141C5.6714 92.701 5.72058 88.3781 5.8091 84.0553C5.89763 80.1941 6.04518 76.3232 6.27141 72.462C6.46813 69.0135 6.75339 65.5748 7.12716 62.1362C7.4616 59.0807 7.91406 56.035 8.47473 53.009C8.97638 50.2973 9.61574 47.6152 10.3928 44.9723C11.101 42.5849 11.9666 40.2466 12.9896 37.9672C13.9437 35.8647 15.065 33.8408 16.3536 31.925C17.5929 30.0878 19.0094 28.3783 20.5733 26.8063C22.1471 25.2442 23.8685 23.8294 25.7079 22.5915C27.6259 21.3044 29.6522 20.1844 31.767 19.2412C34.0392 18.2195 36.39 17.3549 38.7901 16.6573C41.4361 15.8812 44.1213 15.2425 46.8362 14.7415C49.8657 14.1815 52.9248 13.7295 55.9839 13.3955C59.4266 13.0221 62.8791 12.7372 66.3316 12.5407C70.2071 12.3148 74.0826 12.1674 77.9581 12.0888C82.286 11.9905 86.614 11.9414 90.942 11.9512H165.068ZM165.078 15.9598C169.376 15.9499 173.675 15.9991 177.973 16.0875C181.8 16.1759 185.626 16.3233 189.452 16.5394C192.836 16.7359 196.219 17.011 199.583 17.3843C202.554 17.6987 205.515 18.131 208.446 18.6812C211.023 19.1528 213.58 19.7619 216.099 20.4988C218.322 21.1472 220.495 21.9529 222.6 22.896C224.509 23.7508 226.338 24.7627 228.069 25.9221C229.692 27.0126 231.207 28.2604 232.594 29.6457C233.981 31.031 235.23 32.544 236.332 34.1651C237.492 35.8942 238.506 37.7118 239.361 39.608C240.306 41.7203 241.112 43.8916 241.761 46.1021C242.509 48.6173 243.109 51.1619 243.591 53.736C244.132 56.6638 244.565 59.6112 244.889 62.5783C245.263 65.9384 245.539 69.3083 245.735 72.688C245.952 76.5098 246.109 80.3218 246.188 84.1437C246.276 88.4371 246.325 92.7207 246.325 97.0141V155.226C246.325 159.519 246.276 163.803 246.188 168.096C246.109 171.918 245.952 175.74 245.735 179.552C245.539 182.932 245.263 186.302 244.889 189.672C244.565 192.629 244.132 195.576 243.591 198.504C243.109 201.078 242.509 203.623 241.761 206.138C241.112 208.358 240.306 210.52 239.361 212.632C238.506 214.528 237.492 216.356 236.332 218.075C235.23 219.706 233.981 221.219 232.594 222.604C231.207 223.98 229.692 225.227 228.069 226.318C226.338 227.477 224.509 228.489 222.6 229.344C220.495 230.297 218.322 231.093 216.099 231.741C213.58 232.478 211.023 233.087 208.446 233.559C205.515 234.109 202.554 234.541 199.583 234.865C196.219 235.229 192.836 235.514 189.452 235.701C185.626 235.917 181.8 236.074 177.973 236.153C173.675 236.251 169.376 236.29 165.078 236.29C165.078 236.29 165.078 236.29 165.068 236.29H90.942C90.9321 236.29 90.9321 236.29 90.9321 236.29C86.6337 236.29 82.3352 236.251 78.0368 236.153C74.2105 236.074 70.3842 235.917 66.5579 235.701C63.1742 235.514 59.7905 235.229 56.4265 234.865C53.456 234.541 50.4952 234.109 47.564 233.559C44.9869 233.087 42.4295 232.478 39.9114 231.741C37.6884 231.093 35.5146 230.297 33.4097 229.344C31.5014 228.489 29.6719 227.477 27.9407 226.318C26.3177 225.227 24.8029 223.98 23.416 222.604C22.0291 221.219 20.7799 219.706 19.6782 218.075C18.5176 216.356 17.5044 214.528 16.6487 212.632C15.7044 210.52 14.8978 208.358 14.2486 206.138C13.5011 203.623 12.901 201.078 12.4191 198.504C11.8781 195.576 11.4453 192.629 11.1207 189.672C10.7469 186.302 10.4715 182.932 10.2748 179.552C10.0584 175.74 9.90099 171.918 9.8223 168.096C9.73377 163.803 9.68459 159.519 9.68459 155.226V97.0141C9.68459 92.7207 9.73377 88.4371 9.8223 84.1437C9.90099 80.3218 10.0584 76.5098 10.2748 72.688C10.4715 69.3083 10.7469 65.9384 11.1207 62.5783C11.4453 59.6112 11.8781 56.6638 12.4191 53.736C12.901 51.1619 13.5011 48.6173 14.2486 46.1021C14.8978 43.8916 15.7044 41.7203 16.6487 39.608C17.5044 37.7118 18.5176 35.8942 19.6782 34.1651C20.7799 32.544 22.0291 31.031 23.416 29.6457C24.8029 28.2604 26.3177 27.0126 27.9407 25.9221C29.6719 24.7627 31.5014 23.7508 33.4097 22.896C35.5146 21.9529 37.6884 21.1472 39.9114 20.4988C42.4295 19.7619 44.9869 19.1528 47.564 18.6812C50.4952 18.131 53.456 17.6987 56.4265 17.3843C59.7905 17.011 63.1742 16.7359 66.5579 16.5394C70.3842 16.3233 74.2105 16.1759 78.0368 16.0875C82.3352 15.9991 86.6337 15.9499 90.9321 15.9598C90.9321 15.9598 90.9321 15.9598 90.942 15.9598H165.068C165.078 15.9598 165.078 15.9598 165.078 15.9598Z" clip-rule="evenodd"/>
  <g opacity=".4" filter="url(#filter1_f)">
   <path d="M115.502 66.4484L104.815 84.5081L109.282 92.0952L87.7926 129.455L74.5091 137.298L60.4 160.931L71.559 179.684L75.4634 179.459L78.7814 185.257L138.354 185.275L142.909 192.941L146.172 192.975L141.675 185.275L188.367 185.289L200.4 165.656L145.574 69.8716L138.846 69.9986L137.303 66.9175L115.502 66.4484ZM138.758 74.4181L156.782 105.477H120.853L138.758 74.4181ZM119.322 108.131H158.323L191.697 165.641L130.001 165.283L108.047 127.688L119.322 108.131ZM106.397 130.549L118.387 151.08H94.5613L106.397 130.549ZM93.0313 153.734H119.936L133.12 176.311L80.1708 176.041L93.0313 153.734Z"/>
  </g>
  <path fill="url(#paint2_linear)" d="M77.7709 174.329L136.358 72.7062L189.297 163.93L126.998 163.568L133.949 174.615L77.7709 174.329Z"/>
  <path fill="url(#paint3_linear)" d="M113.102 64.7368L102.416 82.7964L106.882 90.3835L85.3927 127.743L72.1092 135.587L58 159.22L69.1591 177.972L73.0634 177.747L76.3815 183.545L135.954 183.563L140.509 191.229L143.772 191.263L139.276 183.564L185.967 183.577L198 163.944L143.174 68.16L136.446 68.2869L134.903 65.2058L113.102 64.7368ZM136.359 72.7064L154.383 103.766H118.453L136.359 72.7064ZM116.922 106.42H155.923L189.297 163.93L127.601 163.571L105.647 125.976L116.922 106.42ZM103.997 128.837L115.987 149.368H92.1614L103.997 128.837ZM90.6314 152.022H117.536L130.72 174.599L77.7708 174.329L90.6314 152.022Z"/>
 </g>
</svg>
